X: 1221
T: Kitty Losty's Reel
M:C|
L:1/8
R:Reel
B:O'Neill's 1221
N:Collected by Ennis
Z:Transcribed by Trish O'Neil
K:Em
d^cdfe2dB | AD (3FED FAA2 | Bddf edB^c | dBAF BEE2 :|
Beef {a}gfge | ^defg afdf | e^def{a}g2fe | dBAF BEE2 |
Beef {a}gfge | ^defg afdf | (g/2a/2g/2f/2g).e (f/2g/2f/2e/2f).e | dBAF BEE2 |]


